build/img/footer-twit.svg

<?xml version="1.0" encoding="UTF-8" standalone="no"?>
<svg width="32px" height="26px" viewBox="0 0 32 26" version="1.1" xmlns="http://www.w3.org/2000/svg" xmlns:xlink="http://www.w3.org/1999/xlink">
    <!-- Generator: Sketch 3.8.2 (29753) - http://www.bohemiancoding.com/sketch -->
    <title>path5_1_</title>
    <desc>Created with Sketch.</desc>
    <defs></defs>
    <g id="Page-1" stroke="none" stroke-width="1" fill="none" fill-rule="evenodd">
        <g id="Identi_Wireframe" transform="translate(-697.000000, -4485.000000)" fill="#006AA5">
            <g id="footer" transform="translate(0.000000, 4454.000000)">
                <g id="social-icons" transform="translate(666.000000, 31.000000)">
                    <g id="twitter" transform="translate(31.000000, 0.000000)">
                        <path d="M31.2500003,3.00619083 C30.1002517,3.51640215 28.8650616,3.86071722 27.5681452,4.01586402 C28.8912149,3.22239897 29.9079805,1.9655991 30.3869408,0.469208241 C29.1482045,1.20393914 27.7757094,1.73686839 26.3150023,2.02455488 C25.1461928,0.778282825 23.4793621,0 21.6358857,0 C18.0948817,0 15.2240011,2.87088066 15.2240011,6.41144138 C15.2240011,6.91378455 15.2808513,7.40282941 15.3903406,7.87270257 C10.0616022,7.60463107 5.33793637,5.05279872 2.17571219,1.17324224 C1.62372205,2.1201918 1.30766586,3.22117996 1.30766586,4.39686022 C1.30766586,6.62122201 2.43912929,8.5832749 4.15959644,9.73302348 C3.10914181,9.6995561 2.12074589,9.41142634 1.25569168,8.93135782 C1.25535922,8.95773278 1.25535922,8.98477265 1.25535922,9.01181252 C1.25535922,12.1179622 3.46553617,14.7090245 6.39814308,15.2990256 C5.86011616,15.4447528 5.29349789,15.523656 4.70948102,15.523656 C4.29579317,15.523656 3.89451706,15.4823205 3.50343631,15.4082933 C4.31906519,17.9549172 6.68704858,19.8088106 9.49199185,19.8605631 C7.29832696,21.5804762 4.53372186,22.6055532 1.52919332,22.6055532 C1.01222203,22.6055532 0.501899888,22.575078 -7.10542736e-15,22.5151248 C2.83796737,24.3349967 6.20786662,25.3965333 9.82832794,25.3965333 C21.6208143,25.3965333 28.0698234,15.6271611 28.0698234,7.15503781 C28.0698234,6.87643849 28.0633959,6.60016638 28.0515382,6.32500245 C29.3032404,5.42082908 30.3909303,4.29213614 31.2500003,3.00619083 L31.2500003,3.00619083 L31.2500003,3.00619083 Z" id="path5_1_"></path>
                    </g>
                </g>
            </g>
        </g>
    </g>
</svg>

<svg width="32" height="26" viewBox="0 0 32 26" xmlns="http://www.w3.org/2000/svg"><title>path5_1_</title><path d="M31.25 3.006c-1.15.51-2.385.855-3.682 1.01 1.323-.794 2.34-2.05 2.82-3.547-1.24.734-2.612 1.267-4.073 1.555C25.145.778 23.48 0 21.635 0c-3.54 0-6.41 2.87-6.41 6.41 0 .504.056.993.165 1.463-5.328-.268-10.052-2.82-13.214-6.7-.552.947-.868 2.048-.868 3.224 0 2.224 1.13 4.186 2.852 5.336C3.11 9.7 2.12 9.41 1.256 8.93v.082c0 3.106 2.21 5.697 5.142 6.287-.538.145-1.105.224-1.69.224-.412 0-.813-.042-1.205-.116.816 2.547 3.184 4.4 5.99 4.453-2.195 1.72-4.96 2.746-7.964 2.746-.518 0-1.028-.03-1.53-.09 2.838 1.82 6.208 2.88 9.828 2.88 11.793 0 18.242-9.77 18.242-18.24 0-.28-.007-.556-.018-.83 1.25-.905 2.34-2.034 3.198-3.32z" fill="#006AA5" fill-rule="evenodd"/></svg>
